packages/components/Atoms/Icon/assets/img/rpl_icon_download.svg

<svg width="11" height="12" viewBox="0 0 11 12" overflow="visible" xmlns="http://www.w3.org/2000/svg">
  <path
    d="M9.64286 12H0.642857C0.286607 12 0 11.7134 0 11.3571V10.7143C0 10.358 0.286607 10.0714 0.642857 10.0714H9.64286C9.99911 10.0714 10.2857 10.358 10.2857 10.7143V11.3571C10.2857 11.7134 9.99911 12 9.64286 12ZM3.42857 0.642857V4.28571H1.07946C0.602679 4.28571 0.364286 4.86161 0.701786 5.19911L4.77857 9.27589C4.97946 9.47679 5.30893 9.47679 5.50982 9.27589L9.58661 5.19911C9.92411 4.86161 9.68571 4.28571 9.20893 4.28571H6.85714V0.642857C6.85714 0.286607 6.57054 0 6.21429 0H4.07143C3.71518 0 3.42857 0.286607 3.42857 0.642857Z"
    fill="inherit" />
</svg>

<svg width="11" height="12" overflow="visible" xmlns="http://www.w3.org/2000/svg"><path d="M9.643 12h-9A.641.641 0 010 11.357v-.643c0-.356.287-.643.643-.643h9c.356 0 .643.287.643.643v.643a.641.641 0 01-.643.643zM3.429.643v3.643h-2.35a.535.535 0 00-.377.913l4.077 4.077c.2.2.53.2.73 0l4.078-4.077a.535.535 0 00-.378-.913H6.857V.643A.641.641 0 006.214 0H4.071a.641.641 0 00-.642.643z" fill="inherit"/></svg>
